src/pos-icons/calendar-account-outline.svg

<svg height="24" viewBox="0 0 24 24" width="24" xmlns="http://www.w3.org/2000/svg"><path d="m19 4h-1v-2h-2v2h-8v-2h-2v2h-1a2 2 0 0 0 -2 2v14a2 2 0 0 0 2 2h14a2 2 0 0 0 2-2v-14a2 2 0 0 0 -2-2m0 16h-14v-10h14zm0-12h-14v-2h14m-7 5c2 0 3 2.42 1.59 3.84-1.42 1.42-3.84.41-3.84-1.59 0-1.25 1-2.25 2.25-2.25m4.5 7.88v.12h-9v-.12c0-1.25 2-2.25 4.5-2.25s4.5 1 4.5 2.25z"/></svg>

<?xml version="1.0" encoding="UTF-8"?><!DOCTYPE svg PUBLIC "-//W3C//DTD SVG 1.1//EN" "http://www.w3.org/Graphics/SVG/1.1/DTD/svg11.dtd"><svg xmlns="http://www.w3.org/2000/svg" xmlns:xlink="http://www.w3.org/1999/xlink" version="1.1" id="mdi-calendar-account-outline" width="24" height="24" viewBox="0 0 24 24"><path d="M19,4H18V2H16V4H8V2H6V4H5A2,2 0 0,0 3,6V20A2,2 0 0,0 5,22H19A2,2 0 0,0 21,20V6A2,2 0 0,0 19,4M19,20H5V10H19V20M19,8H5V6H19M12,11C14,11 15,13.42 13.59,14.84C12.17,16.26 9.75,15.25 9.75,13.25C9.75,12 10.75,11 12,11M16.5,18.88V19H7.5V18.88C7.5,17.63 9.5,16.63 12,16.63C14.5,16.63 16.5,17.63 16.5,18.88Z" /></svg>
